img/svg/logo.svg

<?xml version="1.0" encoding="ISO-8859-1"?>
<?xml-stylesheet href="../../sass/style.css" type="text/css"?>
<svg class="logo-svg" width="81" height="23" viewBox="0 0 81 23" fill="none" xmlns="http://www.w3.org/2000/svg">
<path d="M2.52667 20.9466L10.9212 3.66409C10.9212 3.66409 3.57596 7.00909 2.00199 10.9116C0.428017 14.8141 0.927102 18.4038 2.00201 20.9466" stroke="#499A18" stroke-linecap="round" stroke-linejoin="round"/>
<path d="M1.99646 20.9925C1.99646 20.9925 27.7102 -8.60087 19.3157 4.2216C10.9212 17.0441 20.1707 6.63145 15.4973 14.0678C10.824 21.5041 1.99646 20.9925 1.99646 20.9925Z" stroke="#499A18" stroke-linejoin="round"/>
<path class="logo-path" d="M26.9264 9.84138C28.2811 9.84138 29.2837 10.0654 29.9344 10.5134C30.5957 10.9507 30.9264 11.7294 30.9264 12.8494C30.9264 13.9694 30.6011 14.86 29.9504 15.5214C29.2997 16.172 28.2491 16.4974 26.7984 16.4974H25.4544L25.4064 19.9694L26.6544 20.0814C26.6544 20.38 26.5637 20.7 26.3824 21.0414H22.7824L22.7344 20.4974C23.1824 20.3267 23.6411 20.1987 24.1104 20.1134C24.0464 15.9534 23.9931 12.86 23.9504 10.8334C23.6624 10.78 23.1931 10.652 22.5424 10.4494L22.6224 9.84138H26.9264ZM26.6384 15.4574C27.5557 15.4467 28.2544 15.2174 28.7344 14.7694C29.2144 14.3107 29.4544 13.708 29.4544 12.9614C29.4544 12.2147 29.2197 11.6974 28.7504 11.4094C28.2811 11.1107 27.5291 10.9614 26.4944 10.9614C26.3024 10.9614 25.9771 10.9667 25.5184 10.9774C25.5184 10.988 25.5024 12.4867 25.4704 15.4734L26.6384 15.4574ZM33.9855 9.15338C34.3162 9.15338 34.5508 9.16405 34.6895 9.18538C34.6895 9.55871 34.6202 9.98538 34.4815 10.4654C34.3855 16.7587 34.3375 19.9214 34.3375 19.9534L35.6815 20.0814C35.6815 20.38 35.5908 20.7 35.4095 21.0414H31.7295L31.6815 20.4814C32.1722 20.3107 32.6522 20.1827 33.1215 20.0974L32.9615 10.4174C32.3748 10.3854 31.9055 10.3214 31.5535 10.2254L31.6175 9.39338C32.1615 9.23338 32.9508 9.15338 33.9855 9.15338ZM42.9763 15.8094L42.8963 19.9374C43.3549 19.9694 43.8136 20.044 44.2723 20.1614L44.2403 20.7214C44.0696 20.8067 43.7603 20.9027 43.3123 21.0094C42.8749 21.1054 42.4429 21.1534 42.0163 21.1534C41.8243 20.7694 41.7176 20.4014 41.6963 20.0494C40.4803 20.8494 39.6269 21.2494 39.1363 21.2494C38.3789 21.2494 37.7709 21.0467 37.3123 20.6414C36.8536 20.236 36.6243 19.6707 36.6243 18.9454C36.6243 17.2707 37.6483 16.4067 39.6963 16.3534C40.8909 16.3214 41.4936 16.3054 41.5043 16.3054L41.4883 15.7614C41.4669 15.0254 41.3283 14.4974 41.0723 14.1774C40.8163 13.8467 40.3576 13.6814 39.6963 13.6814C39.4189 13.6814 39.1203 13.7454 38.8003 13.8734L38.4163 15.4734C38.3629 15.484 38.2723 15.4894 38.1443 15.4894L37.4883 15.4414C37.3176 14.9827 37.2269 14.348 37.2163 13.5374C37.4189 13.4307 37.8829 13.2707 38.6083 13.0574C39.3336 12.8334 39.7976 12.7214 40.0003 12.7214C41.0883 12.7214 41.8563 12.9614 42.3043 13.4414C42.7523 13.9214 42.9763 14.7107 42.9763 15.8094ZM39.4883 20.1614C39.7976 20.1614 40.5123 19.8147 41.6323 19.1214L41.5523 17.1214C40.8269 17.1854 40.2189 17.244 39.7283 17.2974C39.2376 17.3507 38.8429 17.4947 38.5443 17.7294C38.2456 17.9534 38.0963 18.3107 38.0963 18.8014C38.0963 19.708 38.5603 20.1614 39.4883 20.1614ZM50.1613 12.7214C51.1853 12.7214 51.9266 12.9774 52.3853 13.4894C52.8439 13.9907 53.0733 14.7587 53.0733 15.7934C53.0733 16.092 53.0306 17.4787 52.9453 19.9534L54.2893 20.0814C54.2893 20.38 54.1986 20.7 54.0173 21.0414H50.3373L50.2893 20.4814C50.7799 20.3107 51.2599 20.1827 51.7293 20.0974C51.6653 17.3027 51.6066 15.7507 51.5533 15.4414C51.5106 15.1214 51.4359 14.844 51.3293 14.6094C51.2226 14.3747 51.0626 14.2094 50.8493 14.1134C50.6359 14.0174 50.3533 13.9694 50.0013 13.9694C49.2973 13.9694 48.6146 14.14 47.9533 14.4814C47.8893 16.9134 47.8466 18.7374 47.8253 19.9534L49.1693 20.0814C49.1693 20.38 49.0786 20.7 48.8973 21.0414H45.2173L45.1693 20.4814C45.6599 20.3107 46.1399 20.1827 46.6093 20.0974C46.5453 17.388 46.4919 15.3827 46.4493 14.0814C45.8626 14.0494 45.3933 13.9854 45.0413 13.8894L45.1053 13.0574C45.6813 12.8974 46.5186 12.8174 47.6173 12.8174C47.7453 13.0094 47.8413 13.2867 47.9053 13.6494C48.3639 13.404 48.8226 13.1907 49.2813 13.0094C49.7506 12.8174 50.0439 12.7214 50.1613 12.7214ZM56.2126 20.0494L56.0846 14.0174H54.8526L54.8046 13.4574C54.9113 13.3827 55.2206 13.244 55.7326 13.0414L57.0446 10.9934C57.258 11.0147 57.4233 11.068 57.5406 11.1534L57.5246 12.9134C58.3246 12.9134 58.9806 12.9667 59.4926 13.0734C59.4926 13.3614 59.402 13.676 59.2206 14.0174H57.4926C57.4713 15.2974 57.45 17.2387 57.4286 19.8414C58.026 19.8734 58.6233 19.98 59.2206 20.1614L59.2046 20.7214C59.0553 20.8174 58.6713 20.9294 58.0526 21.0574C57.4446 21.1854 56.9433 21.2494 56.5486 21.2494C56.4953 21.164 56.426 20.9827 56.3406 20.7054C56.2553 20.4174 56.2126 20.1987 56.2126 20.0494ZM61.9191 20.0174C62.2925 20.1774 62.7458 20.2574 63.2791 20.2574C63.8231 20.2574 64.2498 20.156 64.5591 19.9534C64.8685 19.7507 65.0231 19.4734 65.0231 19.1214C65.0231 18.7694 64.8791 18.476 64.5911 18.2414C64.3031 18.0067 63.9511 17.7987 63.5351 17.6174C63.1191 17.436 62.7031 17.244 62.2871 17.0414C61.8711 16.8387 61.5191 16.572 61.2311 16.2414C60.9431 15.9107 60.7991 15.5267 60.7991 15.0894C60.7991 14.3534 61.0445 13.7774 61.5351 13.3614C62.0258 12.9347 62.7031 12.7214 63.5671 12.7214C64.4418 12.7214 65.2631 12.9187 66.0311 13.3134C66.0418 13.42 66.0471 13.708 66.0471 14.1774C66.0471 14.636 65.9991 15.0307 65.9031 15.3614C65.6471 15.4467 65.3431 15.4894 64.9911 15.4894L64.4631 13.8574C64.2285 13.74 63.9085 13.6814 63.5031 13.6814C63.1085 13.6814 62.7938 13.788 62.5591 14.0014C62.3245 14.204 62.2071 14.4654 62.2071 14.7854C62.2071 15.0947 62.3511 15.3667 62.6391 15.6014C62.9378 15.836 63.2951 16.0494 63.7111 16.2414C64.1271 16.4227 64.5431 16.62 64.9591 16.8334C65.3751 17.036 65.7271 17.308 66.0151 17.6494C66.3138 17.98 66.4631 18.364 66.4631 18.8014C66.4631 19.5694 66.1645 20.172 65.5671 20.6094C64.9805 21.036 64.2551 21.2494 63.3911 21.2494C62.9218 21.2494 62.4205 21.1747 61.8871 21.0254C61.3538 20.8654 60.9058 20.6627 60.5431 20.4174C60.5431 19.7027 60.6071 19.068 60.7351 18.5134C60.9805 18.4707 61.3111 18.4494 61.7271 18.4494L61.9191 20.0174Z" fill="black"/>
</svg>

<?xml-stylesheet href="../../sass/style.css" type="text/css"?><svg xmlns="http://www.w3.org/2000/svg" width="81" height="23" fill="none" class="logo-svg"><path stroke="#499A18" stroke-linecap="round" stroke-linejoin="round" d="M2.527 20.947 10.92 3.664S3.576 7.01 2.002 10.912c-1.574 3.902-1.075 7.492 0 10.035"/><path stroke="#499A18" stroke-linejoin="round" d="M1.996 20.992S27.71-8.6 19.316 4.223c-8.395 12.822.855 2.41-3.819 9.846-4.673 7.436-13.5 6.925-13.5 6.925Z"/><path fill="#000" d="M26.926 9.841c1.355 0 2.358.224 3.008.672.662.438.992 1.216.992 2.336 0 1.12-.325 2.011-.976 2.672-.65.651-1.7.976-3.152.976h-1.344l-.048 3.472 1.248.112c0 .299-.09.619-.272.96h-3.6l-.048-.544c.448-.17.907-.298 1.376-.384-.064-4.16-.117-7.253-.16-9.28-.288-.053-.757-.181-1.408-.384l.08-.608h4.304Zm-.288 5.616c.918-.01 1.616-.24 2.096-.688.48-.458.72-1.061.72-1.808 0-.746-.234-1.264-.704-1.552-.469-.298-1.22-.448-2.256-.448-.192 0-.517.006-.976.016l-.048 4.496 1.168-.016Zm7.348-6.304c.33 0 .565.011.704.032 0 .374-.07.8-.209 1.28l-.144 9.488 1.344.128c0 .299-.09.619-.271.96h-3.68l-.049-.56c.491-.17.971-.298 1.44-.384l-.16-9.68c-.586-.032-1.055-.096-1.407-.192l.064-.832c.543-.16 1.333-.24 2.368-.24Zm8.99 6.656-.08 4.128c.459.032.918.107 1.376.224l-.032.56c-.17.086-.48.182-.928.288-.437.096-.87.144-1.296.144a2.862 2.862 0 0 1-.32-1.104c-1.216.8-2.07 1.2-2.56 1.2-.757 0-1.365-.202-1.824-.608-.458-.405-.688-.97-.688-1.696 0-1.674 1.024-2.538 3.072-2.592l1.808-.048-.016-.544c-.021-.736-.16-1.264-.416-1.584-.256-.33-.714-.496-1.376-.496-.277 0-.576.064-.896.192l-.384 1.6c-.053.011-.144.016-.272.016l-.656-.048c-.17-.458-.261-1.093-.272-1.904.203-.106.667-.266 1.392-.48.726-.224 1.19-.336 1.392-.336 1.088 0 1.856.24 2.304.72.448.48.672 1.27.672 2.368Zm-3.488 4.352c.31 0 1.024-.346 2.144-1.04l-.08-2c-.725.064-1.333.123-1.824.176-.49.054-.885.198-1.184.432-.298.224-.448.582-.448 1.072 0 .907.464 1.36 1.392 1.36Zm10.673-7.44c1.024 0 1.766.256 2.224.768.459.502.688 1.27.688 2.304 0 .299-.042 1.686-.128 4.16l1.344.128c0 .299-.09.619-.272.96h-3.68l-.048-.56c.49-.17.97-.298 1.44-.384-.064-2.794-.122-4.346-.176-4.656a2.956 2.956 0 0 0-.224-.832.95.95 0 0 0-.48-.496c-.213-.096-.496-.144-.848-.144-.704 0-1.386.171-2.048.512a681.246 681.246 0 0 0-.128 5.472l1.344.128c0 .299-.09.619-.272.96h-3.68l-.048-.56c.49-.17.97-.298 1.44-.384-.064-2.709-.117-4.714-.16-6.016-.586-.032-1.056-.096-1.408-.192l.064-.832c.576-.16 1.414-.24 2.512-.24.128.192.224.47.288.832.459-.245.918-.458 1.376-.64.47-.192.763-.288.88-.288Zm6.052 7.328-.128-6.032h-1.232l-.048-.56c.106-.074.416-.213.928-.416l1.312-2.048c.213.022.378.075.496.16l-.016 1.76c.8 0 1.456.054 1.968.16 0 .288-.091.603-.272.944h-1.728a760.67 760.67 0 0 0-.064 5.824 7.536 7.536 0 0 1 1.792.32l-.016.56c-.15.096-.534.208-1.152.336-.608.128-1.11.192-1.504.192-.054-.085-.123-.266-.208-.544-.086-.288-.128-.506-.128-.656Zm5.706-.032c.373.16.827.24 1.36.24.544 0 .97-.101 1.28-.304.31-.202.464-.48.464-.832s-.144-.645-.432-.88a4.524 4.524 0 0 0-1.056-.624 32.72 32.72 0 0 1-1.248-.576 3.297 3.297 0 0 1-1.056-.8 1.7 1.7 0 0 1-.432-1.152c0-.736.245-1.312.736-1.728.49-.426 1.168-.64 2.032-.64.875 0 1.696.198 2.464.592.01.107.016.395.016.864 0 .459-.048.854-.144 1.184-.256.086-.56.128-.912.128l-.528-1.632c-.234-.117-.554-.176-.96-.176-.395 0-.71.107-.944.32a.988.988 0 0 0-.352.784c0 .31.144.582.432.816a5.38 5.38 0 0 0 1.072.64c.416.182.832.379 1.248.592.416.203.768.475 1.056.816.299.331.448.715.448 1.152 0 .768-.298 1.371-.896 1.808-.586.427-1.312.64-2.176.64-.47 0-.97-.074-1.504-.224-.533-.16-.981-.362-1.344-.608 0-.714.064-1.349.192-1.904.245-.042.576-.064.992-.064l.192 1.568Z" class="logo-path"/></svg>
